packages/tokens/icons/receipt2/size24Px.svg

<svg viewBox="0 0 24 24" fill="none" xmlns="http://www.w3.org/2000/svg" width="1em" height="1em"><path d="M5.5 4C5.5 3.72386 5.72386 3.5 6 3.5L18 3.5C18.2761 3.5 18.5 3.72386 18.5 4V19.5568C18.5 19.9635 18.0403 20.2001 17.7094 19.9637L16.3719 19.0083C15.8503 18.6358 15.1497 18.6358 14.6281 19.0083L12.2906 20.678C12.1168 20.8021 11.8832 20.8021 11.7094 20.678L9.37186 19.0083C8.85031 18.6358 8.14969 18.6358 7.62814 19.0083L6.29062 19.9637C5.95968 20.2001 5.5 19.9635 5.5 19.5568L5.5 4Z" stroke="currentColor" stroke-linecap="round" stroke-linejoin="round"/><path d="M15 10.425V10.25C15 9.2835 14.2165 8.5 13.25 8.5H10.75C9.7835 8.5 9 9.2835 9 10.25C9 11.2165 9.7835 12 10.75 12H13.25C14.2165 12 15 12.7835 15 13.75C15 14.7165 14.2165 15.5 13.25 15.5H10.75C9.7835 15.5 9 14.7165 9 13.75V13.4M12 7L12 17" stroke="currentColor" stroke-linecap="round"/></svg>

<svg xmlns="http://www.w3.org/2000/svg" fill="none" viewBox="0 0 24 24" width="1em" height="1em"><path stroke="currentColor" stroke-linecap="round" stroke-linejoin="round" d="M5.5 4a.5.5 0 0 1 .5-.5h12a.5.5 0 0 1 .5.5v15.557a.5.5 0 0 1-.79.407l-1.338-.956a1.5 1.5 0 0 0-1.744 0l-2.337 1.67a.5.5 0 0 1-.582 0l-2.337-1.67a1.5 1.5 0 0 0-1.744 0l-1.337.956a.5.5 0 0 1-.791-.407V4Z"/><path stroke="currentColor" stroke-linecap="round" d="M15 10.425v-.175a1.75 1.75 0 0 0-1.75-1.75h-2.5a1.75 1.75 0 1 0 0 3.5h2.5a1.75 1.75 0 1 1 0 3.5h-2.5A1.75 1.75 0 0 1 9 13.75v-.35M12 7v10"/></svg>
